X:1
T: Miss Betty Hunter
C:
R:Reel
Q: 232
K:C
M:4/4
L:1/8
|:f|ed cB c2 Gc|Ac Gc ED Df|ed cB c2 Gc|Ac Gc EC Cf|
ed cB c2 Gc|Ac Gc ED Df|ed cB c2 Gc|Ac Gc EC CF|
EC EG cG AF|EC EG FD DF|EC EG cG AF|Ec DF EC CF|
EC EG cG AF|EC EG FD DF|EC EG cd ec|de fd ec c:|
